packages/core/src/svgs/mc.svg

<svg width="24" height="24" viewBox="0 0 24 24" fill="none" xmlns="http://www.w3.org/2000/svg">
<g clip-path="url(#clip0_31_13577)">
<path d="M0 0H24V24H0V0Z" fill="#01123E"/>
<path fill-rule="evenodd" clip-rule="evenodd" d="M12 5.14307C15.78 5.14307 18.8571 8.22021 18.8571 12.0002C18.8571 15.7802 15.78 18.8574 12 18.8574C8.21997 18.8574 5.14282 15.7802 5.14282 12.0002C5.14282 8.22021 8.21997 5.14307 12 5.14307ZM12 15.0002C11.1428 14.2374 10.7143 13.2431 10.7143 12.0002C10.7143 10.7574 11.1428 9.76307 12 9.00021C12.8571 9.76307 13.2857 10.7574 13.2857 12.0002C13.2857 13.2431 12.8571 14.2159 12 15.0002Z" fill="url(#paint0_linear_31_13577)"/>
<path d="M5.33569 13.6415C5.36141 13.6844 6.86569 16.3287 9.32141 16.2858C10.1228 16.2729 11.01 15.7501 12 15.0001C12.8571 14.2372 13.2857 13.2429 13.2857 12.0001C13.2857 10.7572 12.8571 9.76294 12 9.00009C12 9.00009 13.38 7.68437 15 7.71437C16.2686 7.7358 17.7 8.56723 18.7628 10.8558C18.925 11.8378 18.8717 12.8434 18.6066 13.8027C18.3416 14.7621 17.8711 15.6524 17.2278 16.4119C16.5845 17.1714 15.7838 17.7819 14.8811 18.2012C13.9784 18.6205 12.9953 18.8385 12 18.8401C10.4668 18.8478 8.97557 18.3391 7.76664 17.3961C6.55772 16.453 5.70142 15.1305 5.33569 13.6415Z" fill="url(#paint1_linear_31_13577)"/>
</g>
<defs>
<linearGradient id="paint0_linear_31_13577" x1="12" y1="5.14307" x2="12" y2="16.5002" gradientUnits="userSpaceOnUse">
<stop stop-color="#F4C251"/>
<stop offset="0.89" stop-color="#E47236"/>
</linearGradient>
<linearGradient id="paint1_linear_31_13577" x1="12.0943" y1="7.71437" x2="12.0943" y2="18.8401" gradientUnits="userSpaceOnUse">
<stop offset="0.15" stop-color="#E1602B"/>
<stop offset="1" stop-color="#EDAD3F"/>
</linearGradient>
<clipPath id="clip0_31_13577">
<rect width="24" height="24" fill="white"/>
</clipPath>
</defs>
</svg>

<svg xmlns="http://www.w3.org/2000/svg" width="24" height="24" fill="none" viewBox="0 0 24 24"><g clip-path="url(#a)"><path fill="#01123E" d="M0 0h24v24H0z"/><path fill="url(#b)" fill-rule="evenodd" d="M12 5.143c3.78 0 6.857 3.077 6.857 6.857S15.78 18.857 12 18.857 5.143 15.78 5.143 12 8.22 5.143 12 5.143M12 15c-.857-.763-1.286-1.757-1.286-3S11.143 9.763 12 9c.857.763 1.286 1.757 1.286 3s-.429 2.216-1.286 3" clip-rule="evenodd"/><path fill="url(#c)" d="M5.336 13.642c.025.042 1.53 2.687 3.985 2.644.802-.013 1.689-.536 2.679-1.286.857-.763 1.286-1.757 1.286-3S12.857 9.763 12 9c0 0 1.38-1.316 3-1.286 1.269.022 2.7.853 3.763 3.142A6.864 6.864 0 0 1 12 18.84a6.83 6.83 0 0 1-6.664-5.198"/></g><defs><linearGradient id="b" x1="12" x2="12" y1="5.143" y2="16.5" gradientUnits="userSpaceOnUse"><stop stop-color="#F4C251"/><stop offset=".89" stop-color="#E47236"/></linearGradient><linearGradient id="c" x1="12.094" x2="12.094" y1="7.714" y2="18.84" gradientUnits="userSpaceOnUse"><stop offset=".15" stop-color="#E1602B"/><stop offset="1" stop-color="#EDAD3F"/></linearGradient><clipPath id="a"><path fill="#fff" d="M0 0h24v24H0z"/></clipPath></defs></svg>
